X:1
T:Title
%%score { 1 | 2 }
L:1/8
Q:1/4=125
M:4/4
K:Eb
V:1 treble nm="Grand Piano"
V:2 bass 
V:1
 B2 c2 B2 G2 | [DF]4 E4 | [DF]2 [DF]2 [DF]2 E2 | G2 B2 [DB]4 | [DF]2 [DF]2 [DF]2 E2 | %5
 G2 [DB]2 [EB]4 | [Ec]2 [Ec]2 [EB]2 [B,G]2 | [B,FB]2 [B,DB]2 [B,EG]4 | %8
 [G,E]2 [B,EG]2 [EGB]2 [B,EG]2 | [A,DF]4 [G,E]4 | [Ec]2 [Ec]2 [Ec]2 [Ee]2 | [EB]2 [DB]2 [EB]4 | %12
 [Ec]2 [Ec]2 [Ec]2 [Ee]2 | [EB]2 [DB]2 [EB]4 | [Ec]2 [Ec]2 [EB]2 [B,EG]2 | %15
 [B,FB]2 [B,DB]2 [B,EG]4 | [G,E]2 [B,EG]2 [EGB]2 [B,EG]2 | [A,DF]4 [G,E]4 |] %18
V:2
 [E,G,E]2 [E,A,E]2 [E,G,E]2 [E,B,E]2 | [B,,A,]4 [E,G,]4 | [B,,B,]2 [B,,B,]2 [B,,A,]2 [E,G,]2 | %3
 [E,B,E]2 [E,G,E]2 [B,,F,]4 | [B,,B,]2 [B,,B,]2 [B,,A,]2 [E,G,]2 | [E,E]2 [B,,F,]2 [E,G,]4 | %6
 [A,,A,]2 [C,A,]2 [E,G,]2 E,2 | D,2 B,,2 E,4 | E,2 E,2 E,2 E,2 | B,,4 E,4 | %10
 [A,,A,]2 [A,,A,]2 [A,,A,]2 [C,A,]2 | [E,G,]2 [B,,F,]2 [E,G,]4 | %12
 [A,,A,]2 [A,,A,]2 [A,,A,]2 [C,A,]2 | [E,G,]2 [B,,F,]2 [E,G,]4 | [A,,A,]2 [C,A,]2 [E,G,]2 E,2 | %15
 D,2 B,,2 E,4 | E,2 E,2 E,2 E,2 | B,,4 E,4 |] %18

